fa-pen-line.svg

<svg width="19" height="18" viewBox="0 0 19 18" fill="none" xmlns="http://www.w3.org/2000/svg">
<path d="M1.40625 14.7188L2.125 12.2812C2.25 11.8438 2.5 11.4375 2.8125 11.125L12.3125 1.625C13.0938 0.84375 14.375 0.84375 15.1562 1.625L16.375 2.84375C16.4688 2.9375 16.5625 3.0625 16.625 3.15625C17.1562 3.9375 17.0625 5 16.375 5.6875L6.875 15.1875C6.84375 15.2188 6.78125 15.25 6.75 15.3125C6.4375 15.5625 6.09375 15.75 5.71875 15.875L3.28125 16.5938L1.9375 16.9688C1.6875 17.0625 1.40625 17 1.21875 16.7812C1 16.5938 0.9375 16.3125 1.03125 16.0625L1.40625 14.7188ZM3.34375 13.4375L2.84375 15.1562L4.5625 14.6562L5.28125 14.4375C5.5 14.375 5.65625 14.2812 5.8125 14.125L12.9688 6.96875L11.0312 5.03125L3.875 12.1875C3.84375 12.1875 3.84375 12.2188 3.8125 12.25C3.6875 12.375 3.625 12.5312 3.5625 12.7188L3.34375 13.4375ZM8.75 15.5H18.25C18.6562 15.5 19 15.8438 19 16.25C19 16.6875 18.6562 17 18.25 17H8.75C8.3125 17 8 16.6875 8 16.25C8 15.8438 8.3125 15.5 8.75 15.5Z" fill="#241D16"/>
</svg>

<svg xmlns="http://www.w3.org/2000/svg" width="19" height="18" fill="none"><path fill="#241D16" d="m1.406 14.719.719-2.438c.125-.437.375-.844.688-1.156l9.5-9.5a2.02 2.02 0 0 1 2.843 0l1.219 1.219c.094.094.188.219.25.312a1.994 1.994 0 0 1-.25 2.532l-9.5 9.5c-.031.03-.094.062-.125.124a3.3 3.3 0 0 1-1.031.563l-2.438.719-1.344.375a.64.64 0 0 1-.718-.188.64.64 0 0 1-.188-.718zm1.938-1.281-.5 1.718 1.719-.5.718-.219c.219-.062.375-.156.532-.312l7.156-7.156L11.03 5.03l-7.156 7.157c-.031 0-.031.03-.062.062-.126.125-.188.281-.25.469zM8.75 15.5h9.5a.76.76 0 0 1 .75.75.74.74 0 0 1-.75.75h-9.5a.72.72 0 0 1-.75-.75.74.74 0 0 1 .75-.75"/></svg>
